TileServer und Tiles/svg/9/19_8.svg

<?xml version='1.0' encoding='UTF-8' standalone='no'?>
<svg xmlns="http://www.w3.org/2000/svg" width="497pt" viewBox="0 0 497 279" xmlns:xlink="http://www.w3.org/1999/xlink" height="279pt">
 <defs style="stroke:none;" overflow="visible">
  <path id="glyph0-7" d="M 1.734375 -5.359375 L 1.734375 -3.125 L 4.640625 -3.125 L 4.640625 -5.359375 L 5.515625 -5.359375 L 5.515625 0 L 4.640625 0 L 4.640625 -2.390625 L 1.734375 -2.390625 L 1.734375 0 L 0.84375 0 L 0.84375 -5.359375 Z M 1.734375 -5.359375 "/>
  <path id="glyph0-6" d="M 4.125 -5.359375 L 4.125 -4.625 L 1.734375 -4.625 L 1.734375 0 L 0.84375 0 L 0.84375 -5.359375 Z M 4.125 -5.359375 "/>
  <path id="glyph0-5" d="M 2.875 -5.453125 C 3.53125 -5.453125 4.015625 -5.304688 4.328125 -5.015625 C 4.640625 -4.734375 4.796875 -4.28125 4.796875 -3.65625 L 4.796875 0 L 4.15625 0 L 3.984375 -0.765625 L 3.953125 -0.765625 C 3.710938 -0.460938 3.460938 -0.242188 3.203125 -0.109375 C 2.953125 0.0234375 2.601562 0.09375 2.15625 0.09375 C 1.664062 0.09375 1.257812 -0.03125 0.9375 -0.28125 C 0.613281 -0.539062 0.453125 -0.941406 0.453125 -1.484375 C 0.453125 -2.023438 0.660156 -2.4375 1.078125 -2.71875 C 1.503906 -3.007812 2.15625 -3.171875 3.03125 -3.203125 L 3.9375 -3.234375 L 3.9375 -3.546875 C 3.9375 -3.992188 3.835938 -4.300781 3.640625 -4.46875 C 3.453125 -4.644531 3.179688 -4.734375 2.828125 -4.734375 C 2.546875 -4.734375 2.28125 -4.691406 2.03125 -4.609375 C 1.78125 -4.523438 1.539062 -4.429688 1.3125 -4.328125 L 1.046875 -4.984375 C 1.285156 -5.117188 1.5625 -5.226562 1.875 -5.3125 C 2.195312 -5.40625 2.53125 -5.453125 2.875 -5.453125 Z M 3.9375 -2.625 L 3.140625 -2.59375 C 2.472656 -2.5625 2.007812 -2.453125 1.75 -2.265625 C 1.5 -2.078125 1.375 -1.816406 1.375 -1.484375 C 1.375 -1.179688 1.460938 -0.957031 1.640625 -0.8125 C 1.828125 -0.675781 2.0625 -0.609375 2.34375 -0.609375 C 2.800781 -0.609375 3.179688 -0.734375 3.484375 -0.984375 C 3.785156 -1.234375 3.9375 -1.617188 3.9375 -2.140625 Z M 3.9375 -2.625 "/>
  <path id="glyph0-4" d="M 4.015625 -5.359375 L 4.984375 -5.359375 L 2.6875 -2.78125 L 5.171875 0 L 4.15625 0 L 1.734375 -2.71875 L 1.734375 0 L 0.84375 0 L 0.84375 -5.359375 L 1.734375 -5.359375 L 1.734375 -2.765625 Z M 4.015625 -5.359375 "/>
  <path id="glyph0-3" d="M 2.265625 -5.453125 C 2.878906 -5.453125 3.363281 -5.332031 3.71875 -5.09375 C 4.082031 -4.851562 4.265625 -4.503906 4.265625 -4.046875 C 4.265625 -3.722656 4.175781 -3.460938 4 -3.265625 C 3.820312 -3.078125 3.578125 -2.941406 3.265625 -2.859375 L 3.265625 -2.8125 C 3.472656 -2.757812 3.664062 -2.675781 3.84375 -2.5625 C 4.03125 -2.457031 4.175781 -2.316406 4.28125 -2.140625 C 4.394531 -1.972656 4.453125 -1.753906 4.453125 -1.484375 C 4.453125 -1.035156 4.265625 -0.660156 3.890625 -0.359375 C 3.523438 -0.0546875 2.945312 0.09375 2.15625 0.09375 C 1.769531 0.09375 1.421875 0.0625 1.109375 0 C 0.796875 -0.0625 0.535156 -0.144531 0.328125 -0.25 L 0.328125 -1.046875 C 0.554688 -0.929688 0.820312 -0.832031 1.125 -0.75 C 1.4375 -0.664062 1.78125 -0.625 2.15625 -0.625 C 2.550781 -0.625 2.882812 -0.691406 3.15625 -0.828125 C 3.4375 -0.960938 3.578125 -1.195312 3.578125 -1.53125 C 3.578125 -2.132812 3.066406 -2.4375 2.046875 -2.4375 L 1.328125 -2.4375 L 1.328125 -3.15625 L 1.90625 -3.15625 C 2.363281 -3.15625 2.734375 -3.210938 3.015625 -3.328125 C 3.296875 -3.453125 3.4375 -3.664062 3.4375 -3.96875 C 3.4375 -4.21875 3.328125 -4.40625 3.109375 -4.53125 C 2.898438 -4.664062 2.597656 -4.734375 2.203125 -4.734375 C 1.910156 -4.734375 1.648438 -4.703125 1.421875 -4.640625 C 1.203125 -4.585938 0.960938 -4.503906 0.703125 -4.390625 L 0.390625 -5.09375 C 0.953125 -5.332031 1.578125 -5.453125 2.265625 -5.453125 Z M 2.265625 -5.453125 "/>
  <path id="glyph0-2" d="M 2.921875 -5.453125 C 3.378906 -5.453125 3.769531 -5.351562 4.09375 -5.15625 C 4.425781 -4.957031 4.679688 -4.675781 4.859375 -4.3125 C 5.035156 -3.945312 5.125 -3.523438 5.125 -3.046875 L 5.125 -2.515625 L 1.453125 -2.515625 C 1.472656 -1.898438 1.628906 -1.4375 1.921875 -1.125 C 2.222656 -0.8125 2.640625 -0.65625 3.171875 -0.65625 C 3.515625 -0.65625 3.816406 -0.6875 4.078125 -0.75 C 4.335938 -0.8125 4.609375 -0.898438 4.890625 -1.015625 L 4.890625 -0.25 C 4.617188 -0.125 4.347656 -0.0351562 4.078125 0.015625 C 3.816406 0.0664062 3.5 0.09375 3.125 0.09375 C 2.625 0.09375 2.175781 -0.00390625 1.78125 -0.203125 C 1.394531 -0.410156 1.09375 -0.71875 0.875 -1.125 C 0.65625 -1.539062 0.546875 -2.046875 0.546875 -2.640625 C 0.546875 -3.222656 0.644531 -3.722656 0.84375 -4.140625 C 1.039062 -4.566406 1.316406 -4.890625 1.671875 -5.109375 C 2.023438 -5.335938 2.441406 -5.453125 2.921875 -5.453125 Z M 2.90625 -4.734375 C 2.488281 -4.734375 2.15625 -4.597656 1.90625 -4.328125 C 1.664062 -4.066406 1.523438 -3.691406 1.484375 -3.203125 L 4.203125 -3.203125 C 4.203125 -3.660156 4.097656 -4.03125 3.890625 -4.3125 C 3.679688 -4.59375 3.351562 -4.734375 2.90625 -4.734375 Z M 2.90625 -4.734375 "/>
  <path id="glyph0-1" d="M 2.875 -3.671875 L 0.109375 -7.140625 L 1.109375 -7.140625 L 3.84375 -3.6875 L 3.84375 -7.140625 L 4.703125 -7.140625 L 4.703125 -3.6875 L 7.4375 -7.140625 L 8.4375 -7.140625 L 5.65625 -3.6875 L 8.515625 0 L 7.484375 0 L 4.703125 -3.625 L 4.703125 0 L 3.84375 0 L 3.84375 -3.625 L 1.046875 0 L 0.015625 0 Z M 2.875 -3.671875 "/>
  <path id="glyph0-0" d="M 0.9375 0 L 0.9375 -7.140625 L 5.046875 -7.140625 L 5.046875 0 Z M 1.453125 -0.515625 L 4.546875 -0.515625 L 4.546875 -6.625 L 1.453125 -6.625 Z M 1.453125 -0.515625 "/>
 </defs>
 <image width="497" xlink:href="svg/9/19_8.jpg" height="279"/>
 <g>
  <path d="M 263.824219 54.769531 L 261.058594 51.300781 L 262.058594 51.300781 L 264.792969 54.753906 L 264.792969 51.300781 L 265.652344 51.300781 L 265.652344 54.753906 L 268.386719 51.300781 L 269.386719 51.300781 L 266.605469 54.753906 L 269.464844 58.441406 L 268.433594 58.441406 L 265.652344 54.816406 L 265.652344 58.441406 L 264.792969 58.441406 L 264.792969 54.816406 L 261.996094 58.441406 L 260.964844 58.441406 Z M 263.824219 54.769531 " transform=" rotate(  340 287.631 55.4418) " style="fill:none;stroke-width:3;stroke-linecap:butt;stroke-linejoin:round;stroke:rgb(100%,100%,100%);stroke-opacity:0.6;stroke-miterlimit:10;"/>
  <path d="M 272.414062 52.988281 C 272.871094 52.988281 273.261719 53.089844 273.585938 53.285156 C 273.917969 53.484375 274.171875 53.765625 274.351562 54.128906 C 274.527344 54.496094 274.617188 54.917969 274.617188 55.394531 L 274.617188 55.925781 L 270.945312 55.925781 C 270.964844 56.542969 271.121094 57.003906 271.414062 57.316406 C 271.714844 57.628906 272.132812 57.785156 272.664062 57.785156 C 273.007812 57.785156 273.308594 57.753906 273.570312 57.691406 C 273.828125 57.628906 274.101562 57.542969 274.382812 57.425781 L 274.382812 58.191406 C 274.109375 58.316406 273.839844 58.40625 273.570312 58.457031 C 273.308594 58.507812 272.992188 58.535156 272.617188 58.535156 C 272.117188 58.535156 271.667969 58.4375 271.273438 58.238281 C 270.886719 58.03125 270.585938 57.722656 270.367188 57.316406 C 270.148438 56.902344 270.039062 56.394531 270.039062 55.800781 C 270.039062 55.21875 270.136719 54.71875 270.335938 54.300781 C 270.53125 53.875 270.808594 53.550781 271.164062 53.332031 C 271.515625 53.105469 271.933594 52.988281 272.414062 52.988281 Z M 272.398438 53.707031 C 271.980469 53.707031 271.648438 53.84375 271.398438 54.113281 C 271.15625 54.375 271.015625 54.75 270.976562 55.238281 L 273.695312 55.238281 C 273.695312 54.78125 273.589844 54.410156 273.382812 54.128906 C 273.171875 53.847656 272.84375 53.707031 272.398438 53.707031 Z M 272.398438 53.707031 " transform=" rotate(  340 287.631 55.4418) " style="fill:none;stroke-width:3;stroke-linecap:butt;stroke-linejoin:round;stroke:rgb(100%,100%,100%);stroke-opacity:0.6;stroke-miterlimit:10;"/>
  <path d="M 277.398438 52.988281 C 278.011719 52.988281 278.496094 53.109375 278.851562 53.347656 C 279.214844 53.589844 279.398438 53.9375 279.398438 54.394531 C 279.398438 54.71875 279.308594 54.980469 279.132812 55.175781 C 278.953125 55.363281 278.710938 55.5 278.398438 55.582031 L 278.398438 55.628906 C 278.605469 55.683594 278.796875 55.765625 278.976562 55.878906 C 279.164062 55.984375 279.308594 56.125 279.414062 56.300781 C 279.527344 56.46875 279.585938 56.6875 279.585938 56.957031 C 279.585938 57.40625 279.398438 57.78125 279.023438 58.082031 C 278.65625 58.386719 278.078125 58.535156 277.289062 58.535156 C 276.902344 58.535156 276.554688 58.503906 276.242188 58.441406 C 275.929688 58.378906 275.667969 58.296875 275.460938 58.191406 L 275.460938 57.394531 C 275.6875 57.511719 275.953125 57.609375 276.257812 57.691406 C 276.570312 57.777344 276.914062 57.816406 277.289062 57.816406 C 277.683594 57.816406 278.015625 57.75 278.289062 57.613281 C 278.570312 57.480469 278.710938 57.246094 278.710938 56.910156 C 278.710938 56.308594 278.199219 56.003906 277.179688 56.003906 L 276.460938 56.003906 L 276.460938 55.285156 L 277.039062 55.285156 C 277.496094 55.285156 277.867188 55.230469 278.148438 55.113281 C 278.429688 54.988281 278.570312 54.777344 278.570312 54.472656 C 278.570312 54.222656 278.460938 54.035156 278.242188 53.910156 C 278.03125 53.777344 277.730469 53.707031 277.335938 53.707031 C 277.042969 53.707031 276.78125 53.738281 276.554688 53.800781 C 276.335938 53.855469 276.09375 53.9375 275.835938 54.050781 L 275.523438 53.347656 C 276.085938 53.109375 276.710938 52.988281 277.398438 52.988281 Z M 277.398438 52.988281 " transform=" rotate(  340 287.631 55.4418) " style="fill:none;stroke-width:3;stroke-linecap:butt;stroke-linejoin:round;stroke:rgb(100%,100%,100%);stroke-opacity:0.6;stroke-miterlimit:10;"/>
  <path d="M 284.046875 53.082031 L 285.015625 53.082031 L 282.71875 55.660156 L 285.203125 58.441406 L 284.1875 58.441406 L 281.765625 55.722656 L 281.765625 58.441406 L 280.875 58.441406 L 280.875 53.082031 L 281.765625 53.082031 L 281.765625 55.675781 Z M 284.046875 53.082031 " transform=" rotate(  340 287.631 55.4418) " style="fill:none;stroke-width:3;stroke-linecap:butt;stroke-linejoin:round;stroke:rgb(100%,100%,100%);stroke-opacity:0.6;stroke-miterlimit:10;"/>
  <path d="M 288.195312 52.988281 C 288.851562 52.988281 289.335938 53.136719 289.648438 53.425781 C 289.960938 53.707031 290.117188 54.160156 290.117188 54.785156 L 290.117188 58.441406 L 289.476562 58.441406 L 289.304688 57.675781 L 289.273438 57.675781 C 289.03125 57.980469 288.78125 58.199219 288.523438 58.332031 C 288.273438 58.464844 287.921875 58.535156 287.476562 58.535156 C 286.984375 58.535156 286.578125 58.410156 286.257812 58.160156 C 285.933594 57.902344 285.773438 57.5 285.773438 56.957031 C 285.773438 56.417969 285.980469 56.003906 286.398438 55.722656 C 286.824219 55.433594 287.476562 55.269531 288.351562 55.238281 L 289.257812 55.207031 L 289.257812 54.894531 C 289.257812 54.449219 289.15625 54.140625 288.960938 53.972656 C 288.773438 53.796875 288.5 53.707031 288.148438 53.707031 C 287.867188 53.707031 287.601562 53.75 287.351562 53.832031 C 287.101562 53.917969 286.859375 54.011719 286.632812 54.113281 L 286.367188 53.457031 C 286.605469 53.324219 286.882812 53.214844 287.195312 53.128906 C 287.515625 53.035156 287.851562 52.988281 288.195312 52.988281 Z M 289.257812 55.816406 L 288.460938 55.847656 C 287.792969 55.878906 287.328125 55.988281 287.070312 56.175781 C 286.820312 56.363281 286.695312 56.625 286.695312 56.957031 C 286.695312 57.261719 286.78125 57.484375 286.960938 57.628906 C 287.148438 57.765625 287.382812 57.832031 287.664062 57.832031 C 288.121094 57.832031 288.5 57.707031 288.804688 57.457031 C 289.105469 57.207031 289.257812 56.824219 289.257812 56.300781 Z M 289.257812 55.816406 " transform=" rotate(  340 287.631 55.4418) " style="fill:none;stroke-width:3;stroke-linecap:butt;stroke-linejoin:round;stroke:rgb(100%,100%,100%);stroke-opacity:0.6;stroke-miterlimit:10;"/>
  <path d="M 293.195312 52.988281 C 293.808594 52.988281 294.292969 53.109375 294.648438 53.347656 C 295.011719 53.589844 295.195312 53.9375 295.195312 54.394531 C 295.195312 54.71875 295.105469 54.980469 294.929688 55.175781 C 294.75 55.363281 294.507812 55.5 294.195312 55.582031 L 294.195312 55.628906 C 294.402344 55.683594 294.59375 55.765625 294.773438 55.878906 C 294.960938 55.984375 295.105469 56.125 295.210938 56.300781 C 295.324219 56.46875 295.382812 56.6875 295.382812 56.957031 C 295.382812 57.40625 295.195312 57.78125 294.820312 58.082031 C 294.453125 58.386719 293.875 58.535156 293.085938 58.535156 C 292.699219 58.535156 292.351562 58.503906 292.039062 58.441406 C 291.726562 58.378906 291.464844 58.296875 291.257812 58.191406 L 291.257812 57.394531 C 291.484375 57.511719 291.75 57.609375 292.054688 57.691406 C 292.367188 57.777344 292.710938 57.816406 293.085938 57.816406 C 293.480469 57.816406 293.8125 57.75 294.085938 57.613281 C 294.367188 57.480469 294.507812 57.246094 294.507812 56.910156 C 294.507812 56.308594 293.996094 56.003906 292.976562 56.003906 L 292.257812 56.003906 L 292.257812 55.285156 L 292.835938 55.285156 C 293.292969 55.285156 293.664062 55.230469 293.945312 55.113281 C 294.226562 54.988281 294.367188 54.777344 294.367188 54.472656 C 294.367188 54.222656 294.257812 54.035156 294.039062 53.910156 C 293.828125 53.777344 293.527344 53.707031 293.132812 53.707031 C 292.839844 53.707031 292.578125 53.738281 292.351562 53.800781 C 292.132812 53.855469 291.890625 53.9375 291.632812 54.050781 L 291.320312 53.347656 C 291.882812 53.109375 292.507812 52.988281 293.195312 52.988281 Z M 293.195312 52.988281 " transform=" rotate(  340 287.631 55.4418) " style="fill:none;stroke-width:3;stroke-linecap:butt;stroke-linejoin:round;stroke:rgb(100%,100%,100%);stroke-opacity:0.6;stroke-miterlimit:10;"/>
  <path d="M 299.957031 53.082031 L 299.957031 53.816406 L 297.566406 53.816406 L 297.566406 58.441406 L 296.675781 58.441406 L 296.675781 53.082031 Z M 299.957031 53.082031 " transform=" rotate(  340 287.631 55.4418) " style="fill:none;stroke-width:3;stroke-linecap:butt;stroke-linejoin:round;stroke:rgb(100%,100%,100%);stroke-opacity:0.6;stroke-miterlimit:10;"/>
  <path d="M 303.035156 52.988281 C 303.691406 52.988281 304.175781 53.136719 304.488281 53.425781 C 304.800781 53.707031 304.957031 54.160156 304.957031 54.785156 L 304.957031 58.441406 L 304.316406 58.441406 L 304.144531 57.675781 L 304.113281 57.675781 C 303.871094 57.980469 303.621094 58.199219 303.363281 58.332031 C 303.113281 58.464844 302.761719 58.535156 302.316406 58.535156 C 301.824219 58.535156 301.417969 58.410156 301.097656 58.160156 C 300.773438 57.902344 300.613281 57.5 300.613281 56.957031 C 300.613281 56.417969 300.820312 56.003906 301.238281 55.722656 C 301.664062 55.433594 302.316406 55.269531 303.191406 55.238281 L 304.097656 55.207031 L 304.097656 54.894531 C 304.097656 54.449219 303.996094 54.140625 303.800781 53.972656 C 303.613281 53.796875 303.339844 53.707031 302.988281 53.707031 C 302.707031 53.707031 302.441406 53.75 302.191406 53.832031 C 301.941406 53.917969 301.699219 54.011719 301.472656 54.113281 L 301.207031 53.457031 C 301.445312 53.324219 301.722656 53.214844 302.035156 53.128906 C 302.355469 53.035156 302.691406 52.988281 303.035156 52.988281 Z M 304.097656 55.816406 L 303.300781 55.847656 C 302.632812 55.878906 302.167969 55.988281 301.910156 56.175781 C 301.660156 56.363281 301.535156 56.625 301.535156 56.957031 C 301.535156 57.261719 301.621094 57.484375 301.800781 57.628906 C 301.988281 57.765625 302.222656 57.832031 302.503906 57.832031 C 302.960938 57.832031 303.339844 57.707031 303.644531 57.457031 C 303.945312 57.207031 304.097656 56.824219 304.097656 56.300781 Z M 304.097656 55.816406 " transform=" rotate(  340 287.631 55.4418) " style="fill:none;stroke-width:3;stroke-linecap:butt;stroke-linejoin:round;stroke:rgb(100%,100%,100%);stroke-opacity:0.6;stroke-miterlimit:10;"/>
  <path d="M 307.503906 53.082031 L 307.503906 55.316406 L 310.410156 55.316406 L 310.410156 53.082031 L 311.285156 53.082031 L 311.285156 58.441406 L 310.410156 58.441406 L 310.410156 56.050781 L 307.503906 56.050781 L 307.503906 58.441406 L 306.613281 58.441406 L 306.613281 53.082031 Z M 307.503906 53.082031 " transform=" rotate(  340 287.631 55.4418) " style="fill:none;stroke-width:3;stroke-linecap:butt;stroke-linejoin:round;stroke:rgb(100%,100%,100%);stroke-opacity:0.6;stroke-miterlimit:10;"/>
  <g transform=" rotate(  340 287.631 55.4418) " style="fill:rgb(13.333333%,13.333333%,13.333333%);fill-opacity:1;">
   <use xlink:href="#glyph0-1" y="58.441822" x="260.950933"/>
   <use xlink:href="#glyph0-2" y="58.441822" x="269.490933"/>
   <use xlink:href="#glyph0-3" y="58.441822" x="275.130933"/>
   <use xlink:href="#glyph0-4" y="58.441822" x="280.030933"/>
   <use xlink:href="#glyph0-5" y="58.441822" x="285.320933"/>
   <use xlink:href="#glyph0-3" y="58.441822" x="290.930933"/>
   <use xlink:href="#glyph0-6" y="58.441822" x="295.830933"/>
   <use xlink:href="#glyph0-5" y="58.441822" x="300.160933"/>
   <use xlink:href="#glyph0-7" y="58.441822" x="305.770933"/>
  </g>
 </g>
</svg>

<svg xmlns="http://www.w3.org/2000/svg" xmlns:xlink="http://www.w3.org/1999/xlink" viewBox="0 0 497 279"> <defs overflow="visible" style="stroke:none">  <path id="g" d="M1.7-5.4V-3h3v-2.4h.7V0h-.8v-2.4H1.7V0H.8v-5.4Zm0 0"/>  <path id="f" d="M4.1-5.4v.8H1.7V0H.8v-5.4Zm0 0"/>  <path id="e" d="M2.9-5.5c.6 0 1.1.2 1.4.5.3.3.5.7.5 1.3V0h-.6L4-.8c-.3.3-.5.6-.8.8h-1c-.5 0-1 0-1.3-.3C.6-.5.5-.9.5-1.5c0-.5.2-1 .5-1.2.5-.3 1-.5 2-.5h.8v-.3c.2-.5.2-.8-.2-1l-.8-.2H2l-.7.5L1-5l1-.3.9-.2Zm1 2.9h-.8c-.6 0-1 .1-1.4.3-.1.3-.3.5-.3.8 0 .3 0 .5.2.7l.7.2c.5 0 .9-.1 1.2-.4.3-.2.4-.6.4-1Zm.1 0"/>  <path id="d" d="M4-5.4h1L2.7-2.8 5.2 0h-1L1.7-2.7V0H.8v-5.4h1v2.6Zm0 0"/>  <path id="c" d="M2.3-5.5c.6 0 1 .2 1.4.5.4.1.6.5.6 1s-.1.6-.3.8c-.2.2-.4.3-.7.3a2 2 0 0 1 .5.4l.5.5.2.5c0 .5-.2.8-.6 1.1-.4.4-1 .5-1.7.5l-1-.1a3 3 0 0 1-1-.3V-1a4 4 0 0 0 2 .4c.4 0 .7 0 1-.2.2-.2.4-.4.4-.7 0-.6-.6-1-1.6-1h-.7v-.6H2l1-.2c.3-.2.4-.4.4-.7 0-.2 0-.4-.3-.5-.1-.2-.5-.2-.9-.2a3 3 0 0 0-.8 0l-.7.4L.4-5a4.8 4.8 0 0 1 1.9-.5Zm0 0"/>  <path id="b" d="M3-5.5c.3 0 .7.1 1 .3a2 2 0 0 1 1 .9v1.8H1.5c0 .5.1 1 .4 1.4.3.3.7.4 1.3.4H4l.9-.3v.8L4 0a5 5 0 0 1-1 0 3 3 0 0 1-1.2-.1 2.2 2.2 0 0 1-1-1.1c0-.2-.2-.8-.2-1.3-.1-.7 0-1.2.2-1.6.2-.5.5-.9.9-1 .3-.2.7-.4 1.2-.4Zm0 .8c-.6 0-.9.1-1 .4-.4.2-.6.6-.6 1.1h2.8c0-.5-.1-.8-.3-1.1-.2-.3-.5-.4-1-.4Zm0 0"/>  <path id="a" d="M2.9-3.7 0-7h1.1l2.7 3.3V-7h.9v3.3L7.4-7h1L5.7-3.7 8.5 0h-1L4.7-3.6V0h-.9v-3.6L1 0H0Zm0 0"/>  <path d="M1 0v-7.1h4V0Zm.4-.5h3.1v-6.1h-3Zm.1 0"/> </defs> <image xlink:href="svg/9/19_8.jpg" width="497" height="279"/> <path d="m263.8 54.8-2.7-3.5h.9l2.8 3.5v-3.5h.9v3.5l2.7-3.5h1l-2.8 3.5 2.9 3.6h-1l-2.9-3.6v3.6h-.9v-3.6l-2.7 3.6h-1Zm8.6-1.8c.6 0 .9 0 1.2.3a2 2 0 0 1 .8.7l.2 1.4v.5H271c0 .6.1 1.1.4 1.4.3.3.7.5 1.3.5l.9-.1.8-.3v.8l-.8.3a5 5 0 0 1-1 0 3 3 0 0 1-1.3-.3 2.2 2.2 0 0 1-1-.9c-.1-.3-.3-1-.3-1.5 0-.6.1-1 .3-1.5.2-.4.5-.7.9-1 .3-.2.7-.3 1.2-.3Zm0 .7c-.4 0-.8.1-1 .4-.2.3-.4.6-.4 1.1h2.7c0-.4-.1-.8-.3-1-.2-.5-.6-.6-1-.6Zm5-.7c.6 0 1.1 0 1.5.3.3.3.5.7.5 1s0 .7-.3 1c-.1.1-.4.2-.7.3a2 2 0 0 1 .6.4c.2-.1.3 0 .4.3l.2.7c0 .4-.2.8-.6 1-.3.5-1 .6-1.7.6h-1a3 3 0 0 1-.9-.5v-.7a4 4 0 0 0 1.9.4c.4 0 .7 0 1-.2.3-.1.4-.4.4-.6 0-.7-.5-1-1.5-1h-.7v-.7h.5c.5 0 1 0 1.1-.3.3 0 .5-.2.5-.5s-.1-.5-.4-.6l-.9-.2a3 3 0 0 0-.7.1c-.3 0-.6.1-.8.3l-.3-.8a4.8 4.8 0 0 1 1.9-.3Zm6.6 0h1l-2.3 2.8 2.5 2.6h-1l-2.4-2.7v2.7h-1v-5.3h1.1v2.6Zm4.2 0c.7 0 1.1 0 1.4.4.4.3.5.8.5 1.4v3.6h-.6l-.2-.7c-.3.3-.5.5-.8.6-.2.2-.5.2-1 .2s-1 0-1.2-.3c-.4-.3-.5-.7-.5-1.2 0-.6.2-1 .6-1.3.4-.3 1-.4 2-.5h.9V55c0-.6-.1-1-.3-1.1l-1-.1h-.6l-.8.3-.2-.6.8-.5h1Zm1 2.8h-.6c-.8 0-1.3.2-1.6.4-.2.2-.3.4-.3.8 0 .3 0 .5.3.6 0 .2.4.2.7.2.3 0 .8 0 1.1-.3.3-.3.5-.7.5-1.2Zm4-2.8c.6 0 1 0 1.4.3.4.3.6.7.6 1s0 .7-.3 1c-.1.1-.4.2-.7.3a2 2 0 0 1 .6.4c.2-.1.2 0 .4.3l.2.7c0 .4-.2.8-.6 1-.3.5-1 .6-1.7.6H292a3 3 0 0 1-.8-.5v-.7a4 4 0 0 0 1.8.4c.5 0 .8 0 1-.2.4-.1.5-.4.5-.6 0-.7-.5-1-1.5-1h-.7v-.7h.5c.5 0 .9 0 1.2-.3.2 0 .4-.2.4-.5s-.1-.5-.4-.6l-.9-.2a3 3 0 0 0-.7.1c-.4 0-.5.1-.8.3l-.3-.8a4.8 4.8 0 0 1 1.9-.3Zm6.8 0v.9h-2.4v4.5h-1v-5.3Zm3 0c.7 0 1.2 0 1.5.4.3.3.5.8.5 1.4v3.6h-.7l-.2-.7-.7.6c-.4.2-.6.2-1 .2-.7 0-1.1 0-1.4-.3-.2-.3-.4-.7-.4-1.2 0-.6.2-1 .6-1.3.5-.3 1.1-.4 2-.5h.8V55c.1-.6 0-1-.2-1.1l-.8-.1h-.8l-.7.3-.3-.6.8-.5h1Zm1.1 2.8h-.8c-.7 0-1.1.2-1.4.4-.2.2-.4.4-.4.8 0 .3.1.5.3.6.2.2.4.2.7.2.5 0 .8 0 1.1-.3.4-.3.5-.7.5-1.2Zm3.4-2.8v2.4h3v-2.3h.7v5.3h-.8v-2.3h-2.9v2.3h-.9v-5.3Zm0 0" style="fill:none;stroke-width:3;stroke-linecap:butt;stroke-linejoin:round;stroke:#fff;stroke-opacity:.6;stroke-miterlimit:10" transform=" rotate(  340 287.631 55.4418) "/> <g style="fill:#222;fill-opacity:1" transform=" rotate(  340 287.631 55.4418) ">  <use xlink:href="#a" x="261" y="58.4"/>  <use xlink:href="#b" x="269.5" y="58.4"/>  <use xlink:href="#c" x="275.1" y="58.4"/>  <use xlink:href="#d" x="280" y="58.4"/>  <use xlink:href="#e" x="285.3" y="58.4"/>  <use xlink:href="#c" x="290.9" y="58.4"/>  <use xlink:href="#f" x="295.8" y="58.4"/>  <use xlink:href="#e" x="300.2" y="58.4"/>  <use xlink:href="#g" x="305.8" y="58.4"/> </g></svg>
